X:353
T: NUN ADE MEIN HERZLIEB SCHAETZELEIN
N: E0201
O: Europa, Mitteleuropa, Deutschland, Kassel
R: erzaehlendes Volks - Lied, Tod, Toten - Sage, Grabesstimme
M: 4/4
L: 1/8
K: G
D2 | G2G2A2d2 | B3AG2
GB | d2d2d2cB | A4z2
d2 | B2B2B2de | d3cA2
d2 | d2B2AGAB | G4z2

